X:3395
T:Coolea Jig, The
T:Cuil Aodha Jig
R:jig
H:Played in A or in G
D:D\'eanta:
D:Tommy Keane and Jacqueline McCarthy: Wind among the Reeds
Z:id:hn-jig-143
M:6/8
K:A
age dBe|ABA c2d|edc dBA|GFE dcB|~A3 AGA|~B3 gab|age dBe|1 ABA A2a:|2 ABA A2e||
e2a aga|bef gab|age dBe|dBA GAB|A2a aga|bef gab|age dBe|1 ABA A2e:|2 ABA A2a||
K:G
gfd cAd|GAG B2c|dcB cAG|FED cBA|~G3 GFG|~A3 fga|gfd cAd|1 GAG G2g:|2 GAG G2d||
d2g gfg|ade fga|gfd cAd|cAG FGA|G2g gfg|ade fga|gfd cAd|1 GAG G2d:|2 GAG G2g||


